apps/trade/public/tokens/icp.svg

<svg width="24" height="25" viewBox="0 0 24 25" fill="none" xmlns="http://www.w3.org/2000/svg">
<g clip-path="url(#clip0_972_14693)">
<path d="M20.4396 20.9377C25.0997 16.2774 25.0996 8.72159 20.4393 4.06142C15.7789 -0.598759 8.22317 -0.598626 3.56299 4.06171C-1.09718 8.72205 -1.09705 16.2778 3.56329 20.938C8.22363 25.5982 15.7794 25.598 20.4396 20.9377Z" fill="white"/>
<path d="M12.002 0.632357C13.602 0.632357 15.1553 0.94569 16.622 1.56569C18.0353 2.16569 19.302 3.01902 20.3953 4.10569C21.482 5.19236 22.342 6.46569 22.9353 7.87902C23.5553 9.33902 23.8686 10.899 23.8686 12.499C23.8686 14.099 23.5553 15.6524 22.9353 17.119C22.3353 18.5324 21.482 19.799 20.3953 20.8924C19.3086 21.979 18.0353 22.839 16.622 23.4324C15.162 24.0524 13.602 24.3657 12.002 24.3657C10.402 24.3657 8.84862 24.0524 7.38195 23.4324C5.96862 22.8324 4.70195 21.979 3.60862 20.8924C2.52195 19.799 1.66862 18.5324 1.06862 17.119C0.44862 15.6524 0.135286 14.099 0.135286 12.499C0.135286 10.899 0.44862 9.34569 1.06862 7.87902C1.66862 6.46569 2.52195 5.19902 3.60862 4.10569C4.70195 3.01902 5.96862 2.16569 7.38195 1.56569C8.84862 0.94569 10.402 0.632357 12.002 0.632357ZM12.002 0.499023C5.37529 0.499023 0.00195312 5.87236 0.00195312 12.499C0.00195312 19.1257 5.37529 24.499 12.002 24.499C18.6286 24.499 24.002 19.1257 24.002 12.499C24.002 5.87236 18.6286 0.499023 12.002 0.499023Z" fill="#DDDDDE"/>
<path d="M16.9873 14.9939C15.9273 14.9939 14.8073 14.3006 14.2607 13.8006C13.6607 13.2472 12.0073 11.4606 12.0007 11.4539C10.9207 10.2472 9.46065 8.90723 8.00732 8.90723C6.26065 8.90723 4.73398 10.1206 4.33398 11.7206C4.36732 11.6139 4.92065 10.1472 7.00732 10.1472C8.06732 10.1472 9.18732 10.8406 9.73398 11.3406C10.334 11.8939 11.9873 13.6806 11.994 13.6872C13.074 14.8939 14.534 16.2339 15.9873 16.2339C17.734 16.2339 19.2606 15.0206 19.6606 13.4206C19.634 13.5206 19.074 14.9939 16.9873 14.9939Z" fill="#29ABE2"/>
<path d="M11.9999 13.6871C11.9932 13.6805 11.5199 13.1671 10.9866 12.6071C10.6999 12.9471 10.2866 13.4138 9.80656 13.8338C8.9199 14.6138 8.3399 14.7738 8.00656 14.7738C6.7599 14.7738 5.7399 13.7871 5.7399 12.5671C5.7399 11.3605 6.75323 10.3671 8.00656 10.3605C8.05323 10.3605 8.10656 10.3671 8.17323 10.3738C7.7999 10.2271 7.3999 10.1338 7.00656 10.1338C4.9199 10.1338 4.36656 11.6005 4.33323 11.7071C4.26656 11.9805 4.22656 12.2671 4.22656 12.5605C4.22656 14.5805 5.89323 16.2271 7.97323 16.2271C8.8399 16.2271 9.81323 15.7805 10.8132 14.9071C11.2866 14.4938 11.6932 14.0471 12.0066 13.6938C12.0066 13.6938 12.0066 13.6871 11.9999 13.6871Z" fill="url(#paint0_linear_972_14693)"/>
<path d="M12.0008 11.4472C12.0075 11.4539 12.4808 11.9672 13.0141 12.5272C13.3008 12.1872 13.7141 11.7206 14.1941 11.3006C15.0808 10.5206 15.6608 10.3606 15.9941 10.3606C17.2408 10.3606 18.2608 11.3472 18.2608 12.5672C18.2608 13.7739 17.2475 14.7672 15.9941 14.7739C15.9475 14.7739 15.8941 14.7672 15.8275 14.7606C16.2008 14.9072 16.6008 15.0006 16.9941 15.0006C19.0808 15.0006 19.6341 13.5339 19.6675 13.4272C19.7341 13.1539 19.7741 12.8672 19.7741 12.5739C19.7741 10.5539 18.0808 8.90723 16.0008 8.90723C15.1341 8.90723 14.1875 9.35389 13.1875 10.2272C12.7141 10.6406 12.3075 11.0872 11.9941 11.4406C11.9941 11.4406 11.9941 11.4472 12.0008 11.4472Z" fill="url(#paint1_linear_972_14693)"/>
</g>
<defs>
<linearGradient id="paint0_linear_972_14693" x1="9.96643" y1="15.7541" x2="4.8589" y2="10.4651" gradientUnits="userSpaceOnUse">
<stop offset="0.22" stop-color="#ED1E79"/>
<stop offset="0.892" stop-color="#522785"/>
</linearGradient>
<linearGradient id="paint1_linear_972_14693" x1="14.031" y1="9.38336" x2="19.1385" y2="14.6724" gradientUnits="userSpaceOnUse">
<stop offset="0.21" stop-color="#F15A24"/>
<stop offset="0.684" stop-color="#FBB03B"/>
</linearGradient>
<clipPath id="clip0_972_14693">
<rect width="24" height="24" fill="white" transform="translate(0 0.5)"/>
</clipPath>
</defs>
</svg>

<svg width="24" height="25" fill="none" xmlns="http://www.w3.org/2000/svg">
    <g clip-path="url(#a)">
        <path d="M20.44 20.938c4.66-4.66 4.66-12.216 0-16.877-4.661-4.66-12.217-4.66-16.877 0-4.66 4.661-4.66 12.217 0 16.877 4.66 4.66 12.216 4.66 16.877 0Z" fill="#fff"/>
        <path d="M12.002.632c1.6 0 3.153.314 4.62.934a11.95 11.95 0 0 1 3.773 2.54 11.766 11.766 0 0 1 2.54 3.773c.62 1.46.934 3.02.934 4.62s-.314 3.153-.934 4.62a11.95 11.95 0 0 1-2.54 3.773 11.77 11.77 0 0 1-3.773 2.54c-1.46.62-3.02.934-4.62.934s-3.153-.314-4.62-.934a11.952 11.952 0 0 1-3.773-2.54 11.95 11.95 0 0 1-2.54-3.773 11.796 11.796 0 0 1-.934-4.62c0-1.6.314-3.153.934-4.62a11.95 11.95 0 0 1 2.54-3.773 11.95 11.95 0 0 1 3.773-2.54c1.467-.62 3.02-.934 4.62-.934Zm0-.133c-6.627 0-12 5.373-12 12s5.373 12 12 12 12-5.373 12-12-5.373-12-12-12Z" fill="#DDDDDE"/>
        <path d="M16.987 14.994c-1.06 0-2.18-.693-2.726-1.193-.6-.554-2.254-2.34-2.26-2.347-1.08-1.207-2.54-2.547-3.994-2.547-1.746 0-3.273 1.214-3.673 2.814.033-.107.587-1.574 2.673-1.574 1.06 0 2.18.694 2.727 1.194.6.553 2.253 2.34 2.26 2.346 1.08 1.207 2.54 2.547 3.993 2.547 1.747 0 3.274-1.213 3.674-2.813-.027.1-.587 1.573-2.674 1.573Z" fill="#29ABE2"/>
        <path d="M12 13.687c-.007-.006-.48-.52-1.013-1.08-.287.34-.7.807-1.18 1.227-.887.78-1.467.94-1.8.94-1.247 0-2.267-.987-2.267-2.207 0-1.207 1.013-2.2 2.267-2.207.046 0 .1.007.166.014a3.229 3.229 0 0 0-1.166-.24c-2.087 0-2.64 1.466-2.674 1.573-.066.273-.106.56-.106.853 0 2.02 1.666 3.667 3.746 3.667.867 0 1.84-.447 2.84-1.32.474-.413.88-.86 1.194-1.213 0 0 0-.007-.007-.007Z" fill="url(#b)"/>
        <path d="M12 11.447c.008.007.48.52 1.014 1.08.287-.34.7-.806 1.18-1.226.887-.78 1.467-.94 1.8-.94 1.247 0 2.267.986 2.267 2.206 0 1.207-1.014 2.2-2.267 2.207-.046 0-.1-.007-.166-.013.373.146.773.24 1.166.24 2.087 0 2.64-1.467 2.674-1.574.066-.273.106-.56.106-.853 0-2.02-1.693-3.667-3.773-3.667-.867 0-1.814.447-2.814 1.32-.473.414-.88.86-1.193 1.214 0 0 0 .006.007.006Z" fill="url(#c)"/>
    </g>
    <defs>
        <linearGradient id="b" x1="9.966" y1="15.754" x2="4.859" y2="10.465" gradientUnits="userSpaceOnUse">
            <stop offset=".22" stop-color="#ED1E79"/>
            <stop offset=".892" stop-color="#522785"/>
        </linearGradient>
        <linearGradient id="c" x1="14.031" y1="9.383" x2="19.139" y2="14.672" gradientUnits="userSpaceOnUse">
            <stop offset=".21" stop-color="#F15A24"/>
            <stop offset=".684" stop-color="#FBB03B"/>
        </linearGradient>
        <clipPath id="a">
            <path fill="#fff" d="M0 .5h24v24H0z"/>
        </clipPath>
    </defs>
</svg>
